icons/hicolor/16x16/actions/icon-diamond-square-symbolic.svg

<?xml version="1.0" encoding="UTF-8" standalone="no"?>
<svg
   xmlns:dc="http://purl.org/dc/elements/1.1/"
   xmlns:cc="http://creativecommons.org/ns#"
   xmlns:rdf="http://www.w3.org/1999/02/22-rdf-syntax-ns#"
   xmlns:svg="http://www.w3.org/2000/svg"
   xmlns="http://www.w3.org/2000/svg"
   xmlns:sodipodi="http://sodipodi.sourceforge.net/DTD/sodipodi-0.dtd"
   xmlns:inkscape="http://www.inkscape.org/namespaces/inkscape"
   inkscape:version="1.0 (4035a4fb49, 2020-05-01)"
   sodipodi:docname="diamond-square-symbolic.svg"
   width="64"
   height="64"
   version="1.1"
   id="svg24">
  <sodipodi:namedview
     inkscape:document-rotation="0"
     inkscape:current-layer="svg24"
     inkscape:window-maximized="1"
     inkscape:window-y="40"
     inkscape:window-x="0"
     inkscape:cy="32"
     inkscape:cx="27.254237"
     inkscape:zoom="3.6875"
     showgrid="false"
     id="namedview947"
     inkscape:window-height="898"
     inkscape:window-width="1920"
     inkscape:pageshadow="2"
     inkscape:pageopacity="0"
     guidetolerance="10"
     gridtolerance="10"
     objecttolerance="10"
     borderopacity="1"
     bordercolor="#666666"
     pagecolor="#ffffff" />
  <metadata
     id="metadata30">
    <rdf:RDF>
      <cc:Work
         rdf:about="">
        <dc:format>image/svg+xml</dc:format>
        <dc:type
           rdf:resource="http://purl.org/dc/dcmitype/StillImage" />
        <dc:title />
      </cc:Work>
    </rdf:RDF>
  </metadata>
  <defs
     id="defs28" />
  <path
     style="fill:#cccccc;stroke-width:0.111328"
     id="path2-0"
     d="M 29.149998,23.450004 34.849999,40.550003 23.449999,51.95 3.5,32.000002 23.449999,12.05 28.437498,17.037499 25.5875,19.887504 23.449999,17.750001 9.200002,32.000002 23.449999,46.250004 29.183398,40.516601 20.599999,32.000002 Z M 40.55,12.05 29.149998,23.450004 l 5.700001,17.099999 8.55,-8.550001 L 34.816601,23.483398 40.55,17.750001 54.8,32.000002 40.55,46.250004 l -2.1375,-2.137502 -2.850001,2.85 L 40.55,51.95 60.5,32.000002 Z" />
</svg>

<svg xmlns="http://www.w3.org/2000/svg" width="64" height="64"><path d="m29.15 23.45 5.7 17.1-11.4 11.4L3.5 32l19.95-19.95 4.987 4.987-2.85 2.85-2.137-2.137L9.2 32l14.25 14.25 5.733-5.733L20.6 32Zm11.4-11.4-11.4 11.4 5.7 17.1L43.4 32l-8.583-8.517 5.733-5.733L54.8 32 40.55 46.25l-2.137-2.137-2.85 2.85 4.987 4.987L60.5 32Z" style="fill:#ccc;stroke-width:.111328"/></svg>
